brandFactory_export/1.Light/Larga distancia_1Light.svg

<?xml version="1.0" encoding="UTF-8"?>
<svg width="24px" height="24px" viewBox="0 0 24 24" version="1.1" xmlns="http://www.w3.org/2000/svg" xmlns:xlink="http://www.w3.org/1999/xlink">
    <title>1.Light/Larga distancia_1Light</title>
    <g id="Symbols" stroke="none" stroke-width="1" fill="none" fill-rule="evenodd">
        <g id="1.Light/Larga-distancia_1Light" fill="#5CB615" fill-rule="nonzero">
            <path d="M11.8857143,0.00672268908 C18.3630252,0.0100840336 23.6067227,5.26386555 23.603363,11.7411765 C23.6,16.4470588 20.7831933,20.6957983 16.4470588,22.5310924 C15.0157544,23.1363871 13.4713292,23.4488985 11.9097755,23.4487927 C11.8692612,23.4660099 11.8247752,23.4756303 11.7781513,23.4756303 C11.5932773,23.4756303 11.4420168,23.3243697 11.4420168,23.1394958 L11.4420168,0.349579832 C11.4420168,0.164705882 11.5932773,0.0134453782 11.7781513,0.0134453782 L11.8078552,0.0158850833 C11.8328647,0.0098959822 11.8589369,0.00672268908 11.8857143,0.00672268908 Z M5.47226891,0.635294118 C7.57983193,0.682352941 8.65210084,1.75462185 8.65210084,3.81848739 C8.65546218,4.19831933 8.61176471,4.58151261 8.51764706,4.9512605 C8.28571429,5.93613445 7.56638655,7.10588235 5.44201681,7.10588235 C5.23361345,7.10588235 5.02184874,7.09579832 4.81680672,7.06890756 C4.41680672,7.11260504 4.20840336,7.91260504 4.1210084,8.39327731 C3.93613445,9.39159664 3.91260504,10.7563025 3.91260504,11.697479 L3.91260504,11.8084034 C3.91260504,12.7495798 3.93277311,14.1176471 4.1210084,15.1159664 C4.21176471,15.5966387 4.42016807,16.4 4.81680672,16.4403361 C5.02521008,16.4134454 5.23361345,16.4033613 5.44201681,16.4033613 C7.56638655,16.4033613 8.28907563,17.5731092 8.51764706,18.5579832 C8.61176471,18.9277311 8.65546218,19.307563 8.65210084,19.687395 C8.65210084,21.7512605 7.58319328,22.8235294 5.47226891,22.8705882 L5.40840336,22.8739496 C5.0487395,22.8739496 4.63865546,22.8067227 4.50084034,22.7865546 L4.47731092,22.7831933 L4.45714286,22.7798319 C3.24033613,22.5546218 2.12773109,21.405042 1.32436975,19.5394958 C0.467226891,17.5462185 0.013445378,14.8705882 0.013445378,11.8117647 L0.013445378,11.697479 C0.013445378,8.63865546 0.467226891,5.96302521 1.32436975,3.9697479 C2.12773109,2.10420168 3.24033613,0.951260504 4.45714286,0.729411765 L4.47731092,0.72605042 L4.50084034,0.722689076 C4.6487395,0.699159664 5.09579832,0.625210084 5.47226891,0.635294118 Z M12.1145551,16.6296872 L12.1139916,22.7664433 C12.726685,22.7125004 13.3248984,22.4412058 13.8991597,21.9596639 C14.5445378,21.4184874 15.1294118,20.6319328 15.6369748,19.6268908 C16.0125297,18.8805498 16.3280363,18.0458279 16.5788448,17.1459733 L16.907563,17.2235294 C15.4090086,16.8440671 13.7966228,16.6461197 12.1145551,16.6296872 Z M17.2322926,17.3094077 L17.13401,17.6518198 C16.8874974,18.471389 16.5878815,19.2362671 16.2386555,19.9294118 C15.6755499,21.0473419 15.0145202,21.9180134 14.2897426,22.5136832 C16.7747254,21.9622635 18.9446522,20.5738457 20.4889965,18.659756 L20.7193277,18.8033613 C19.7820657,18.1930512 18.5823109,17.6808153 17.2322926,17.3094077 Z M5.45546218,1.27058824 C5.24369748,1.26722689 4.95798319,1.29411765 4.60168067,1.3512605 L4.56470588,1.35798319 C2.61848739,1.71764706 0.648739496,5.38487395 0.648739496,11.697479 L0.648739496,11.8117647 C0.648739496,15.5697479 1.33445378,17.9529412 1.9092437,19.287395 C2.61176471,20.9243697 3.57983193,21.9697479 4.56470588,22.1546218 L4.60168067,22.1613445 C4.95798319,22.2184874 5.24705882,22.2453782 5.45546218,22.2420168 C6.36302521,22.2218487 7.00504202,22 7.42184874,21.5697479 C7.82184874,21.1563025 8.01680672,20.5411765 8.01680672,19.6907563 C8.02016807,19.3613445 7.98319328,19.0352941 7.90252101,18.7193277 L7.89915966,18.7092437 C7.63697479,17.5831933 6.83361345,17.0386555 5.43865546,17.0386555 C5.24369748,17.0386555 5.0487395,17.0487395 4.85714286,17.0756303 C4.84033613,17.0789916 4.82352941,17.0789916 4.80672269,17.0789916 C3.82857143,17.0386555 3.57647059,15.6806723 3.49243697,15.2336134 C3.29747899,14.1848739 3.27394958,12.7798319 3.27394958,11.8117647 L3.27394958,11.697479 C3.27394958,10.7294118 3.29747899,9.32436975 3.49243697,8.27563025 C3.57647059,7.82857143 3.82857143,6.47058824 4.80672269,6.43361345 C4.82352941,6.43361345 4.84033613,6.43361345 4.85714286,6.43697479 C5.0487395,6.46386555 5.24369748,6.47394958 5.43865546,6.47394958 C6.83361345,6.47394958 7.64033613,5.92605042 7.89915966,4.80336134 L7.90252101,4.79327731 C7.98319328,4.47394958 8.02016807,4.14789916 8.01680672,3.82184874 C8.01680672,2.97142857 7.82184874,2.35630252 7.42184874,1.94285714 C7.00504202,1.5092437 6.36302521,1.2907563 5.45546218,1.27058824 Z M22.9292053,12.0714648 L22.9042017,12.0739496 L22.9042017,12.0739496 L17.9484454,12.0737227 L17.9479014,12.2144512 C17.9155785,13.7724906 17.7282789,15.2773848 17.4004712,16.6585455 C18.7236664,17.0175679 19.9121266,17.5111744 20.8970758,18.1201575 C22.1179965,16.4038456 22.8603823,14.3222222 22.9292053,12.0714648 Z M17.2746969,12.0743054 L12.1134454,12.0737227 L12.1134454,15.9577227 L12.33679,15.9606287 C13.8860594,15.9903922 15.3794011,16.1731771 16.7480327,16.491788 C17.0703292,15.1245749 17.2512428,13.6269394 17.2746969,12.0743054 Z M21.0331964,5.53098744 L21.0890756,5.49579832 C20.0830014,6.14982245 18.8474366,6.67848309 17.4615518,7.06167836 C17.7619482,8.41651058 17.9295641,9.88462921 17.9506666,11.4005633 L22.9042017,11.4016807 L22.9284454,11.4037227 L22.9288874,11.3766204 C22.8622517,9.2759375 22.1990796,7.25066512 21.0331964,5.53098744 Z M16.8061377,7.22814135 L16.613245,7.27383749 C15.2157397,7.58790515 13.6920504,7.76172962 12.1141217,7.77704367 L12.1134454,11.4007227 L17.2734454,11.4007227 L17.271915,11.2314619 C17.2414223,9.8319419 17.0821628,8.47926505 16.8061377,7.22814135 Z M12.1138827,0.688909881 L12.1134454,7.10272269 L12.4721375,7.09842653 C13.9318005,7.06115368 15.3337972,6.88439099 16.6488828,6.57398744 C16.386944,5.57202686 16.0475674,4.64714144 15.6369748,3.82857143 C15.1327731,2.82352941 14.5478992,2.04033613 13.8991597,1.49579832 C13.3219075,1.0112654 12.7260258,0.742302587 12.1138827,0.688909881 Z M14.2873635,0.9392736 L14.4265588,1.05815646 C15.0977873,1.6486301 15.7111829,2.47886231 16.2386555,3.52605042 C16.672092,4.3863363 17.0291084,5.3571216 17.3030261,6.40582349 L16.907563,6.51092437 C18.3503929,6.14776311 19.6371827,5.61900831 20.6377499,4.98355208 C20.3483591,4.60945937 20.0349807,4.25292111 19.697479,3.91596639 C18.2044274,2.41563164 16.3221163,1.39047416 14.2873635,0.9392736 Z" id="Larga-distancia_1Light"></path>
        </g>
    </g>
</svg>

<svg width="24" height="24" viewBox="0 0 24 24" xmlns="http://www.w3.org/2000/svg"><path d="M11.886.007c6.477.003 11.72 5.257 11.717 11.734a11.726 11.726 0 01-7.156 10.79 11.652 11.652 0 01-4.537.918.336.336 0 01-.468-.31V.35c0-.184.151-.336.336-.336l.03.003a.334.334 0 01.078-.01zM5.472.635c2.108.047 3.18 1.12 3.18 3.183.003.38-.04.764-.134 1.133-.232.985-.952 2.155-3.076 2.155-.208 0-.42-.01-.625-.037-.4.044-.609.844-.696 1.324-.185.999-.208 2.363-.208 3.304v.111c0 .942.02 2.31.208 3.308.09.48.3 1.284.696 1.324.208-.027.417-.037.625-.037 2.124 0 2.847 1.17 3.076 2.155.094.37.137.75.134 1.13 0 2.063-1.069 3.136-3.18 3.183l-.064.003c-.36 0-.77-.067-.907-.087l-.024-.004-.02-.003c-1.217-.225-2.33-1.375-3.133-3.24-.857-1.994-1.31-4.67-1.31-7.728v-.115c0-3.058.453-5.734 1.31-7.727C2.128 2.104 3.24.95 4.457.73l.02-.004.024-.003c.148-.024.595-.098.971-.088zm6.643 15.995l-.001 6.136c.613-.053 1.21-.325 1.785-.806.646-.542 1.23-1.328 1.738-2.333a13.74 13.74 0 00.942-2.481l.329.078c-1.499-.38-3.111-.578-4.793-.594zm5.117.68l-.098.342c-.247.82-.546 1.584-.895 2.277-.563 1.118-1.224 1.989-1.95 2.585a11.048 11.048 0 006.2-3.854l.23.143c-.937-.61-2.137-1.122-3.487-1.494zM5.455 1.27a5.175 5.175 0 00-.853.081l-.037.007C2.618 1.718.649 5.385.649 11.698v.114c0 3.758.685 6.14 1.26 7.475.703 1.637 1.67 2.683 2.656 2.868l.037.006c.356.057.645.084.853.081.908-.02 1.55-.242 1.967-.672.4-.414.595-1.029.595-1.88a3.767 3.767 0 00-.114-.97l-.004-.01c-.262-1.127-1.065-1.671-2.46-1.671-.195 0-.39.01-.582.037-.017.003-.033.003-.05.003-.978-.04-1.23-1.398-1.315-1.845-.195-1.05-.218-2.454-.218-3.422v-.115c0-.968.023-2.373.218-3.421.084-.447.337-1.805 1.315-1.842.017 0 .033 0 .05.003.192.027.387.037.582.037 1.395 0 2.201-.548 2.46-1.67l.004-.01c.08-.32.117-.646.114-.972 0-.85-.195-1.466-.595-1.88-.417-.433-1.059-.651-1.967-.671zM22.93 12.072l-.025.003h-4.956v.14a21.271 21.271 0 01-.548 4.445c1.324.359 2.512.852 3.497 1.461a10.986 10.986 0 002.032-6.049zm-5.654.003h-5.162v3.884l.224.003c1.55.03 3.042.212 4.411.53.322-1.366.503-2.864.527-4.417zm3.758-6.543l.056-.035c-1.006.654-2.242 1.182-3.627 1.566.3 1.355.468 2.823.489 4.339h4.953l.024.003v-.027a11.04 11.04 0 00-1.895-5.846zm-4.227 1.697l-.193.046a21.601 21.601 0 01-4.499.503v3.624h5.16l-.002-.17c-.03-1.4-.19-2.752-.466-4.003zM12.114.688v6.415l.358-.005a20.484 20.484 0 004.177-.524 14.09 14.09 0 00-1.012-2.745c-.504-1.005-1.09-1.789-1.738-2.333-.577-.485-1.173-.754-1.785-.807zm2.173.251l.14.12c.67.59 1.284 1.42 1.812 2.467.433.86.79 1.831 1.064 2.88l-.395.105c1.442-.363 2.73-.892 3.73-1.527-.29-.375-.603-.731-.94-1.068a10.99 10.99 0 00-5.41-2.977z" fill="#5CB615" fill-rule="nonzero"/></svg>
